images/svg/Ciné_FX.svg

<?xml version="1.0" encoding="UTF-8" standalone="no"?>
<!-- Created with Inkscape (http://www.inkscape.org/) -->

<svg
   xmlns:dc="http://purl.org/dc/elements/1.1/"
   xmlns:cc="http://creativecommons.org/ns#"
   xmlns:rdf="http://www.w3.org/1999/02/22-rdf-syntax-ns#"
   xmlns:svg="http://www.w3.org/2000/svg"
   xmlns="http://www.w3.org/2000/svg"
   version="1.1"
   width="50"
   height="28"
   viewBox="0 0 40 22.4"
   id="svg2">
  <metadata
     id="metadata30">
    <rdf:RDF>
      <cc:Work
         rdf:about="">
        <dc:format>image/svg+xml</dc:format>
        <dc:type
           rdf:resource="http://purl.org/dc/dcmitype/StillImage" />
        <dc:title></dc:title>
      </cc:Work>
    </rdf:RDF>
  </metadata>
  <defs
     id="defs28" />
  <g
     transform="matrix(0.07827789,0,0,0.07827789,0,0.56047)"
     id="#000000ff">
    <path
       d="M 0,0 83.41,0 C 83.46,74.31 83.33,148.62 83.48,222.93 55.65,223.1 27.83,222.95 0,223 L 0,0 m 22.16,32.01 c -0.23,9.58 7.39,18.47 16.83,19.89 8.05,1.49 16.76,-2.43 20.81,-9.57 -3.21,-1.83 -6.38,-3.74 -9.49,-5.73 -1.53,1.53 -2.98,3.37 -5.18,3.91 -5.39,2.07 -11.79,-2.76 -11.61,-8.46 -0.41,-5.4 5.26,-10.01 10.46,-8.94 2.61,0.31 4.53,2.2 6.19,4.06 3.34,-1.8 6.54,-3.85 9.77,-5.85 C 55.45,14.59 47.1,10.33 38.99,11.98 29.5,13.4 21.89,22.39 22.16,32.01 M 37.1,64.69 c 0,11.05 0,22.09 0,33.14 4.43,-0.01 8.86,-0.01 13.29,0 -0.01,-11.01 -0.01,-22.03 0,-33.04 -4.43,-0.17 -8.86,-0.08 -13.29,-0.1 m -12.51,47.76 c 0.04,12.4 0.04,24.8 0,37.2 3.14,0 6.27,0 9.4,0.01 0.03,-8.07 -0.02,-16.13 0.03,-24.2 4.8,8.03 9.59,16.08 14.26,24.18 4.08,0.02 8.15,0 12.22,0.02 -0.02,-12.41 -0.02,-24.81 0,-37.21 -3.13,0.02 -6.26,0.02 -9.39,0.01 -0.01,8.1 -0.02,16.2 0,24.31 -4.63,-8.08 -9.21,-16.2 -13.77,-24.31 -4.25,0.01 -8.5,0.01 -12.75,-0.01 m 14.04,52.53 c -3.42,0.03 -6.85,0.02 -10.28,0.03 0.01,13.2 0.01,26.39 0,39.59 9.68,-0.01 19.37,-0.01 29.05,0 0.04,-3.01 0,-6.02 -0.16,-9.03 -5.87,0.02 -11.74,0 -17.61,0.01 0.01,-2.39 0.01,-4.78 0,-7.17 5.74,0.02 11.48,0 17.22,0.02 -0.01,-2.66 -0.01,-5.32 -0.01,-7.98 -5.73,0.03 -11.47,0 -17.21,0.02 0.01,-2.22 0.01,-4.43 0.01,-6.65 5.92,0.01 11.84,0 17.75,0.01 -0.01,-2.94 -0.01,-5.89 0,-8.83 -3.13,0 -6.26,0 -9.39,0 0,-1.96 0,-3.92 0,-5.88 -3.1,1.99 -6.29,3.83 -9.37,5.86 z"
       id="path5"
       style="fill:#000000" />
    <path
       d="m 151.67,86.04 c 2.58,-13.38 15.67,-23.86 29.29,-23.34 29.69,0.03 59.37,0 89.06,0.01 7.7,0.07 15.5,-0.44 23.08,1.27 8.08,1.54 15.39,5.95 21.09,11.81 8.11,8.5 15.75,17.44 23.66,26.12 11.16,-12.55 22.55,-24.89 33.73,-37.41 0.9,-0.83 1.72,-2.24 3.21,-1.8 15.41,0.01 30.82,0.01 46.23,0.01 -19.72,22.01 -39.53,43.96 -59.17,66.04 19.82,21.88 39.35,44.02 59.18,65.9 -15.89,-0.02 -31.78,0 -47.67,-0.01 -11.81,-13.15 -23.64,-26.27 -35.36,-39.49 -11.71,13.23 -23.55,26.34 -35.34,39.49 -16.31,0.01 -32.62,-0.02 -48.93,0.01 20.13,-22.08 40.14,-44.27 60.19,-66.43 -5.86,-6.19 -11.37,-12.7 -17.18,-18.93 -4.73,-5.37 -9.92,-10.93 -16.92,-13.2 -6.7,-2.09 -13.81,-1.89 -20.75,-1.97 -19.35,0.03 -38.7,-0.06 -58.05,0.04 -4.93,0.18 -10.94,0.07 -14.32,4.34 -4.25,6.17 -4.81,13.9 -6.64,20.98 26.14,-0.01 52.28,0 78.42,0 -2.3,10.45 -4.41,20.95 -6.74,31.41 -26.14,0.26 -52.28,0.04 -78.42,0.11 -3.1,14.55 -6.23,29.09 -9.29,43.64 -11.84,0 -23.68,-0.01 -35.52,0 7.78,-36.19 15.46,-72.4 23.16,-108.6 z"
       id="path7"
       style="fill:#000000" />
  </g>
  <g
     transform="matrix(0.07827789,0,0,0.07827789,0,0.56047)"
     id="#b4d700ff">
    <path
       d="M 83.41,0 511,0 l 0,91.23 c -13.06,0.28 -26.09,5.09 -35.53,14.25 -8.96,8.67 -14.67,20.94 -14.5,33.5 -0.51,15.31 7.61,30.32 20.05,39.05 8.63,6.35 19.33,9.42 29.98,9.68 L 511,279 83.41,279 C 83.7,260.32 83.56,241.62 83.48,222.93 83.33,148.62 83.46,74.31 83.41,0 m 58.75,84.93 c -8.4,39.81 -17.16,79.55 -25.31,119.41 18.31,-0.13 36.64,0.32 54.94,-0.22 3.07,-14.57 6.22,-29.11 9.31,-43.67 26.14,0.04 52.29,-0.03 78.43,0.03 3.4,-16.85 7.34,-33.6 10.6,-50.48 -25.97,-0.02 -51.94,0.04 -77.91,-0.03 0.47,-2.61 1.24,-6.61 4.8,-6.1 21.99,-0.44 44,-0.08 66.01,-0.19 6.47,0.05 13.76,-0.06 18.99,4.39 6.91,6.15 12.68,13.43 18.96,20.2 -20.51,22.74 -41.13,45.39 -61.62,68.15 -2.32,2.55 -4.94,4.87 -6.74,7.85 24.73,0.19 49.47,0.03 74.21,0.08 10.52,-11.56 20.59,-23.56 31.54,-34.72 9.89,11.89 20.66,23.04 30.81,34.72 24.38,-0.03 48.77,0.07 73.15,-0.05 -22.36,-25.38 -45.21,-50.35 -67.65,-75.66 22.59,-25.08 45.11,-50.22 67.62,-75.37 -23.79,-0.14 -47.59,0 -71.38,-0.07 -2.57,-0.53 -3.69,2.14 -5.19,3.63 -9.41,10.16 -18.51,20.61 -27.98,30.72 -4.49,-5.28 -9.3,-10.26 -13.82,-15.5 -6.15,-6.84 -13.67,-12.67 -22.44,-15.68 -9.14,-3.22 -18.94,-3.39 -28.52,-3.26 -30.64,0 -61.28,0 -91.93,0 -18.33,-0.61 -35.79,13.78 -38.88,31.82 z"
       id="path10"
       style="fill:#b4d700" />
  </g>
  <g
     transform="matrix(0.07827789,0,0,0.07827789,0,0.56047)"
     id="#ffffffff">
    <path
       d="M 22.16,32.01 C 21.89,22.39 29.5,13.4 38.99,11.98 c 8.11,-1.65 16.46,2.61 20.95,9.34 -3.23,2 -6.43,4.05 -9.77,5.85 -1.66,-1.86 -3.58,-3.75 -6.19,-4.06 -5.2,-1.07 -10.87,3.54 -10.46,8.94 -0.18,5.7 6.22,10.53 11.61,8.46 2.2,-0.54 3.65,-2.38 5.18,-3.91 3.11,1.99 6.28,3.9 9.49,5.73 C 55.75,49.47 47.04,53.39 38.99,51.9 29.55,50.48 21.93,41.59 22.16,32.01 z"
       id="path13"
       style="fill:#ffffff" />
    <path
       d="m 142.16,84.93 c 3.09,-18.04 20.55,-32.43 38.88,-31.82 30.65,0 61.29,0 91.93,0 9.58,-0.13 19.38,0.04 28.52,3.26 8.77,3.01 16.29,8.84 22.44,15.68 4.52,5.24 9.33,10.22 13.82,15.5 9.47,-10.11 18.57,-20.56 27.98,-30.72 1.5,-1.49 2.62,-4.16 5.19,-3.63 23.79,0.07 47.59,-0.07 71.38,0.07 -22.51,25.15 -45.03,50.29 -67.62,75.37 22.44,25.31 45.29,50.28 67.65,75.66 -24.38,0.12 -48.77,0.02 -73.15,0.05 -10.15,-11.68 -20.92,-22.83 -30.81,-34.72 -10.95,11.16 -21.02,23.16 -31.54,34.72 -24.74,-0.05 -49.48,0.11 -74.21,-0.08 1.8,-2.98 4.42,-5.3 6.74,-7.85 20.49,-22.76 41.11,-45.41 61.62,-68.15 -6.28,-6.77 -12.05,-14.05 -18.96,-20.2 -5.23,-4.45 -12.52,-4.34 -18.99,-4.39 -22.01,0.11 -44.02,-0.25 -66.01,0.19 -3.56,-0.51 -4.33,3.49 -4.8,6.1 25.97,0.07 51.94,0.01 77.91,0.03 -3.26,16.88 -7.2,33.63 -10.6,50.48 -26.14,-0.06 -52.29,0.01 -78.43,-0.03 -3.09,14.56 -6.24,29.1 -9.31,43.67 -18.3,0.54 -36.63,0.09 -54.94,0.22 8.15,-39.86 16.91,-79.6 25.31,-119.41 m 9.51,1.11 c -7.7,36.2 -15.38,72.41 -23.16,108.6 11.84,-0.01 23.68,0 35.52,0 3.06,-14.55 6.19,-29.09 9.29,-43.64 26.14,-0.07 52.28,0.15 78.42,-0.11 2.33,-10.46 4.44,-20.96 6.74,-31.41 -26.14,0 -52.28,-0.01 -78.42,0 1.83,-7.08 2.39,-14.81 6.64,-20.98 3.38,-4.27 9.39,-4.16 14.32,-4.34 19.35,-0.1 38.7,-0.01 58.05,-0.04 6.94,0.08 14.05,-0.12 20.75,1.97 7,2.27 12.19,7.83 16.92,13.2 5.81,6.23 11.32,12.74 17.18,18.93 -20.05,22.16 -40.06,44.35 -60.19,66.43 16.31,-0.03 32.62,0 48.93,-0.01 11.79,-13.15 23.63,-26.26 35.34,-39.49 11.72,13.22 23.55,26.34 35.36,39.49 15.89,0.01 31.78,-0.01 47.67,0.01 -19.83,-21.88 -39.36,-44.02 -59.18,-65.9 19.64,-22.08 39.45,-44.03 59.17,-66.04 -15.41,0 -30.82,0 -46.23,-0.01 -1.49,-0.44 -2.31,0.97 -3.21,1.8 -11.18,12.52 -22.57,24.86 -33.73,37.41 -7.91,-8.68 -15.55,-17.62 -23.66,-26.12 -5.7,-5.86 -13.01,-10.27 -21.09,-11.81 -7.58,-1.71 -15.38,-1.2 -23.08,-1.27 -29.69,-0.01 -59.37,0.02 -89.06,-0.01 -13.62,-0.52 -26.71,9.96 -29.29,23.34 z"
       id="path15"
       style="fill:#ffffff" />
    <path
       d="m 37.1,64.69 c 4.43,0.02 8.86,-0.07 13.29,0.1 -0.01,11.01 -0.01,22.03 0,33.04 -4.43,-0.01 -8.86,-0.01 -13.29,0 0,-11.05 0,-22.09 0,-33.14 z"
       id="path17"
       style="fill:#ffffff" />
    <path
       d="m 24.59,112.45 c 4.25,0.02 8.5,0.02 12.75,0.01 4.56,8.11 9.14,16.23 13.77,24.31 -0.02,-8.11 -0.01,-16.21 0,-24.31 3.13,0.01 6.26,0.01 9.39,-0.01 -0.02,12.4 -0.02,24.8 0,37.21 -4.07,-0.02 -8.14,0 -12.22,-0.02 -4.67,-8.1 -9.46,-16.15 -14.26,-24.18 -0.05,8.07 0,16.13 -0.03,24.2 -3.13,-0.01 -6.26,-0.01 -9.4,-0.01 0.04,-12.4 0.04,-24.8 0,-37.2 z"
       id="path19"
       style="fill:#ffffff" />
    <path
       d="m 38.63,164.98 c 3.08,-2.03 6.27,-3.87 9.37,-5.86 0,1.96 0,3.92 0,5.88 3.13,0 6.26,0 9.39,0 -0.01,2.94 -0.01,5.89 0,8.83 -5.91,-0.01 -11.83,0 -17.75,-0.01 0,2.22 0,4.43 -0.01,6.65 5.74,-0.02 11.48,0.01 17.21,-0.02 0,2.66 0,5.32 0.01,7.98 -5.74,-0.02 -11.48,0 -17.22,-0.02 0.01,2.39 0.01,4.78 0,7.17 5.87,-0.01 11.74,0.01 17.61,-0.01 0.16,3.01 0.2,6.02 0.16,9.03 -9.68,-0.01 -19.37,-0.01 -29.05,0 0.01,-13.2 0.01,-26.39 0,-39.59 3.43,-0.01 6.86,0 10.28,-0.03 z"
       id="path21"
       style="fill:#ffffff" />
  </g>
  <g
     transform="matrix(0.07827789,0,0,0.07827789,0,0.56047)"
     id="#d7002aff">
    <path
       d="m 0,223 c 27.83,-0.05 55.65,0.1 83.48,-0.07 0.08,18.69 0.22,37.39 -0.07,56.07 L 0,279 0,223 z"
       id="path24"
       style="fill:#d7002a" />
  </g>
</svg>

<?xml version="1.0" encoding="UTF-8" ?>
<!DOCTYPE svg PUBLIC "-//W3C//DTD SVG 1.1//EN" "http://www.w3.org/Graphics/SVG/1.1/DTD/svg11.dtd">
<svg width="511pt" height="279pt" viewBox="0 0 511 279" version="1.1" xmlns="http://www.w3.org/2000/svg">
<g id="#000000ff">
<path fill="#000000" opacity="1.00" d=" M 0.00 0.00 L 83.41 0.00 C 83.46 74.31 83.33 148.62 83.48 222.93 C 55.65 223.10 27.83 222.95 0.00 223.00 L 0.00 0.00 M 22.16 32.01 C 21.93 41.59 29.55 50.48 38.99 51.90 C 47.04 53.39 55.75 49.47 59.80 42.33 C 56.59 40.50 53.42 38.59 50.31 36.60 C 48.78 38.13 47.33 39.97 45.13 40.51 C 39.74 42.58 33.34 37.75 33.52 32.05 C 33.11 26.65 38.78 22.04 43.98 23.11 C 46.59 23.42 48.51 25.31 50.17 27.17 C 53.51 25.37 56.71 23.32 59.94 21.32 C 55.45 14.59 47.10 10.33 38.99 11.98 C 29.50 13.40 21.89 22.39 22.16 32.01 M 37.10 64.69 C 37.10 75.74 37.10 86.78 37.10 97.83 C 41.53 97.82 45.96 97.82 50.39 97.83 C 50.38 86.82 50.38 75.80 50.39 64.79 C 45.96 64.62 41.53 64.71 37.10 64.69 M 24.59 112.45 C 24.63 124.85 24.63 137.25 24.59 149.65 C 27.73 149.65 30.86 149.65 33.99 149.66 C 34.02 141.59 33.97 133.53 34.02 125.46 C 38.82 133.49 43.61 141.54 48.28 149.64 C 52.36 149.66 56.43 149.64 60.50 149.66 C 60.48 137.25 60.48 124.85 60.50 112.45 C 57.37 112.47 54.24 112.47 51.11 112.46 C 51.10 120.56 51.09 128.66 51.11 136.77 C 46.48 128.69 41.90 120.57 37.34 112.46 C 33.09 112.47 28.84 112.47 24.59 112.45 M 38.63 164.98 C 35.21 165.01 31.78 165.00 28.35 165.01 C 28.36 178.21 28.36 191.40 28.35 204.60 C 38.03 204.59 47.72 204.59 57.40 204.60 C 57.44 201.59 57.40 198.58 57.24 195.57 C 51.37 195.59 45.50 195.57 39.63 195.58 C 39.64 193.19 39.64 190.80 39.63 188.41 C 45.37 188.43 51.11 188.41 56.85 188.43 C 56.84 185.77 56.84 183.11 56.84 180.45 C 51.11 180.48 45.37 180.45 39.63 180.47 C 39.64 178.25 39.64 176.04 39.64 173.82 C 45.56 173.83 51.48 173.82 57.39 173.83 C 57.38 170.89 57.38 167.94 57.39 165.00 C 54.26 165.00 51.13 165.00 48.00 165.00 C 48.00 163.04 48.00 161.08 48.00 159.12 C 44.90 161.11 41.71 162.95 38.63 164.98 Z" />
<path fill="#000000" opacity="1.00" d=" M 151.67 86.04 C 154.25 72.66 167.34 62.18 180.96 62.70 C 210.65 62.73 240.33 62.70 270.02 62.71 C 277.72 62.78 285.52 62.27 293.10 63.98 C 301.18 65.52 308.49 69.93 314.19 75.79 C 322.30 84.29 329.94 93.23 337.85 101.91 C 349.01 89.36 360.40 77.02 371.58 64.50 C 372.48 63.67 373.30 62.26 374.79 62.70 C 390.20 62.71 405.61 62.71 421.02 62.71 C 401.30 84.72 381.49 106.67 361.85 128.75 C 381.67 150.63 401.20 172.77 421.03 194.65 C 405.14 194.63 389.25 194.65 373.36 194.64 C 361.55 181.49 349.72 168.37 338.00 155.15 C 326.29 168.38 314.45 181.49 302.66 194.64 C 286.35 194.65 270.04 194.62 253.73 194.65 C 273.86 172.57 293.87 150.38 313.92 128.22 C 308.06 122.03 302.55 115.52 296.74 109.29 C 292.01 103.92 286.82 98.36 279.82 96.09 C 273.12 94.00 266.01 94.20 259.07 94.12 C 239.72 94.15 220.37 94.06 201.02 94.16 C 196.09 94.34 190.08 94.23 186.70 98.50 C 182.45 104.67 181.89 112.40 180.06 119.48 C 206.20 119.47 232.34 119.48 258.48 119.48 C 256.18 129.93 254.07 140.43 251.74 150.89 C 225.60 151.15 199.46 150.93 173.32 151.00 C 170.22 165.55 167.09 180.09 164.03 194.64 C 152.19 194.64 140.35 194.63 128.51 194.64 C 136.29 158.45 143.97 122.24 151.67 86.04 Z" />
</g>
<g id="#b4d700ff">
<path fill="#b4d700" opacity="1.00" d=" M 83.41 0.00 L 511.00 0.00 L 511.00 91.23 C 497.94 91.51 484.91 96.32 475.47 105.48 C 466.51 114.15 460.80 126.42 460.97 138.98 C 460.46 154.29 468.58 169.30 481.02 178.03 C 489.65 184.38 500.35 187.45 511.00 187.71 L 511.00 279.00 L 83.41 279.00 C 83.70 260.32 83.56 241.62 83.48 222.93 C 83.33 148.62 83.46 74.31 83.41 0.00 M 142.16 84.93 C 133.76 124.74 125.00 164.48 116.85 204.34 C 135.16 204.21 153.49 204.66 171.79 204.12 C 174.86 189.55 178.01 175.01 181.10 160.45 C 207.24 160.49 233.39 160.42 259.53 160.48 C 262.93 143.63 266.87 126.88 270.13 110.00 C 244.16 109.98 218.19 110.04 192.22 109.97 C 192.69 107.36 193.46 103.36 197.02 103.87 C 219.01 103.43 241.02 103.79 263.03 103.68 C 269.50 103.73 276.79 103.62 282.02 108.07 C 288.93 114.22 294.70 121.50 300.98 128.27 C 280.47 151.01 259.85 173.66 239.36 196.42 C 237.04 198.97 234.42 201.29 232.62 204.27 C 257.35 204.46 282.09 204.30 306.83 204.35 C 317.35 192.79 327.42 180.79 338.37 169.63 C 348.26 181.52 359.03 192.67 369.18 204.35 C 393.56 204.32 417.95 204.42 442.33 204.30 C 419.97 178.92 397.12 153.95 374.68 128.64 C 397.27 103.56 419.79 78.42 442.30 53.27 C 418.51 53.13 394.71 53.27 370.92 53.20 C 368.35 52.67 367.23 55.34 365.73 56.83 C 356.32 66.99 347.22 77.44 337.75 87.55 C 333.26 82.27 328.45 77.29 323.93 72.05 C 317.78 65.21 310.26 59.38 301.49 56.37 C 292.35 53.15 282.55 52.98 272.97 53.11 C 242.33 53.11 211.69 53.11 181.04 53.11 C 162.71 52.50 145.25 66.89 142.16 84.93 Z" />
</g>
<g id="#ffffffff">
<path fill="#ffffff" opacity="1.00" d=" M 22.16 32.01 C 21.89 22.39 29.50 13.40 38.99 11.98 C 47.10 10.33 55.45 14.59 59.94 21.32 C 56.71 23.32 53.51 25.37 50.17 27.17 C 48.51 25.31 46.59 23.42 43.98 23.11 C 38.78 22.04 33.11 26.65 33.52 32.05 C 33.34 37.75 39.74 42.58 45.13 40.51 C 47.33 39.97 48.78 38.13 50.31 36.60 C 53.42 38.59 56.59 40.50 59.80 42.33 C 55.75 49.47 47.04 53.39 38.99 51.90 C 29.55 50.48 21.93 41.59 22.16 32.01 Z" />
<path fill="#ffffff" opacity="1.00" d=" M 142.16 84.93 C 145.25 66.89 162.71 52.50 181.04 53.11 C 211.69 53.11 242.33 53.11 272.97 53.11 C 282.55 52.98 292.35 53.15 301.49 56.37 C 310.26 59.38 317.78 65.21 323.93 72.05 C 328.45 77.29 333.26 82.27 337.75 87.55 C 347.22 77.44 356.32 66.99 365.73 56.83 C 367.23 55.34 368.35 52.67 370.92 53.20 C 394.71 53.27 418.51 53.13 442.30 53.27 C 419.79 78.42 397.27 103.56 374.68 128.64 C 397.12 153.95 419.97 178.92 442.33 204.30 C 417.95 204.42 393.56 204.32 369.18 204.35 C 359.03 192.67 348.26 181.52 338.37 169.63 C 327.42 180.79 317.35 192.79 306.83 204.35 C 282.09 204.30 257.35 204.46 232.62 204.27 C 234.42 201.29 237.04 198.97 239.36 196.42 C 259.85 173.66 280.47 151.01 300.98 128.27 C 294.70 121.50 288.93 114.22 282.02 108.07 C 276.79 103.62 269.50 103.73 263.03 103.68 C 241.02 103.79 219.01 103.43 197.02 103.87 C 193.46 103.36 192.69 107.36 192.22 109.97 C 218.19 110.04 244.16 109.98 270.13 110.00 C 266.87 126.88 262.93 143.63 259.53 160.48 C 233.39 160.42 207.24 160.49 181.10 160.45 C 178.01 175.01 174.86 189.55 171.79 204.12 C 153.49 204.66 135.16 204.21 116.85 204.34 C 125.00 164.48 133.76 124.74 142.16 84.93 M 151.67 86.04 C 143.97 122.24 136.29 158.45 128.51 194.64 C 140.35 194.63 152.19 194.64 164.03 194.64 C 167.09 180.09 170.22 165.55 173.32 151.00 C 199.46 150.93 225.60 151.15 251.74 150.89 C 254.07 140.43 256.18 129.93 258.48 119.48 C 232.34 119.48 206.20 119.47 180.06 119.48 C 181.89 112.40 182.45 104.67 186.70 98.50 C 190.08 94.23 196.09 94.34 201.02 94.16 C 220.37 94.06 239.72 94.15 259.07 94.12 C 266.01 94.20 273.12 94.00 279.82 96.09 C 286.82 98.36 292.01 103.92 296.74 109.29 C 302.55 115.52 308.06 122.03 313.92 128.22 C 293.87 150.38 273.86 172.57 253.73 194.65 C 270.04 194.62 286.35 194.65 302.66 194.64 C 314.45 181.49 326.29 168.38 338.00 155.15 C 349.72 168.37 361.55 181.49 373.36 194.64 C 389.25 194.65 405.14 194.63 421.03 194.65 C 401.20 172.77 381.67 150.63 361.85 128.75 C 381.49 106.67 401.30 84.72 421.02 62.71 C 405.61 62.71 390.20 62.71 374.79 62.70 C 373.30 62.26 372.48 63.67 371.58 64.50 C 360.40 77.02 349.01 89.36 337.85 101.91 C 329.94 93.23 322.30 84.29 314.19 75.79 C 308.49 69.93 301.18 65.52 293.10 63.98 C 285.52 62.27 277.72 62.78 270.02 62.71 C 240.33 62.70 210.65 62.73 180.96 62.70 C 167.34 62.18 154.25 72.66 151.67 86.04 Z" />
<path fill="#ffffff" opacity="1.00" d=" M 37.10 64.69 C 41.53 64.71 45.96 64.62 50.39 64.79 C 50.38 75.80 50.38 86.82 50.39 97.83 C 45.96 97.82 41.53 97.82 37.10 97.83 C 37.10 86.78 37.10 75.74 37.10 64.69 Z" />
<path fill="#ffffff" opacity="1.00" d=" M 24.59 112.45 C 28.84 112.47 33.09 112.47 37.34 112.46 C 41.90 120.57 46.48 128.69 51.11 136.77 C 51.09 128.66 51.10 120.56 51.11 112.46 C 54.24 112.47 57.37 112.47 60.50 112.45 C 60.48 124.85 60.48 137.25 60.50 149.66 C 56.43 149.64 52.36 149.66 48.28 149.64 C 43.61 141.54 38.82 133.49 34.02 125.46 C 33.97 133.53 34.02 141.59 33.99 149.66 C 30.86 149.65 27.73 149.65 24.59 149.65 C 24.63 137.25 24.63 124.85 24.59 112.45 Z" />
<path fill="#ffffff" opacity="1.00" d=" M 38.63 164.98 C 41.71 162.95 44.90 161.11 48.00 159.12 C 48.00 161.08 48.00 163.04 48.00 165.00 C 51.13 165.00 54.26 165.00 57.39 165.00 C 57.38 167.94 57.38 170.89 57.39 173.83 C 51.48 173.82 45.56 173.83 39.64 173.82 C 39.64 176.04 39.64 178.25 39.63 180.47 C 45.37 180.45 51.11 180.48 56.84 180.45 C 56.84 183.11 56.84 185.77 56.85 188.43 C 51.11 188.41 45.37 188.43 39.63 188.41 C 39.64 190.80 39.64 193.19 39.63 195.58 C 45.50 195.57 51.37 195.59 57.24 195.57 C 57.40 198.58 57.44 201.59 57.40 204.60 C 47.72 204.59 38.03 204.59 28.35 204.60 C 28.36 191.40 28.36 178.21 28.35 165.01 C 31.78 165.00 35.21 165.01 38.63 164.98 Z" />
</g>
<g id="#d7002aff">
<path fill="#d7002a" opacity="1.00" d=" M 0.00 223.00 C 27.83 222.95 55.65 223.10 83.48 222.93 C 83.56 241.62 83.70 260.32 83.41 279.00 L 0.00 279.00 L 0.00 223.00 Z" />
</g>
</svg>
